src/assets/images/linkedin-square.svg

<?xml version="1.0" encoding="iso-8859-1"?>
<!-- Generator: Adobe Illustrator 16.0.0, SVG Export Plug-In . SVG Version: 6.00 Build 0)  -->
<!DOCTYPE svg PUBLIC "-//W3C//DTD SVG 1.1//EN" "http://www.w3.org/Graphics/SVG/1.1/DTD/svg11.dtd">
<svg version="1.1" id="Capa_1" xmlns="http://www.w3.org/2000/svg" xmlns:xlink="http://www.w3.org/1999/xlink" x="0px" y="0px"
	 width="430.117px" height="430.118px" viewBox="0 0 430.117 430.118" style="enable-background:new 0 0 430.117 430.118;"
	 xml:space="preserve">
<g>
	<path style="fill:#ffffff;" id="LinkedIn__x28_alt_x29_" d="M398.355,0H31.782C14.229,0,0.002,13.793,0.002,30.817v368.471
		c0,17.025,14.232,30.83,31.78,30.83h366.573c17.549,0,31.76-13.814,31.76-30.83V30.817C430.115,13.798,415.904,0,398.355,0z
		 M130.4,360.038H65.413V165.845H130.4V360.038z M97.913,139.315h-0.437c-21.793,0-35.92-14.904-35.92-33.563
		c0-19.035,14.542-33.535,36.767-33.535c22.227,0,35.899,14.496,36.331,33.535C134.654,124.415,120.555,139.315,97.913,139.315z
		 M364.659,360.038h-64.966V256.138c0-26.107-9.413-43.921-32.907-43.921c-17.973,0-28.642,12.018-33.327,23.621
		c-1.736,4.144-2.166,9.94-2.166,15.728v108.468h-64.954c0,0,0.85-175.979,0-194.192h64.964v27.531
		c8.624-13.229,24.035-32.1,58.534-32.1c42.76,0,74.822,27.739,74.822,87.414V360.038z M230.883,193.99
		c0.111-0.182,0.266-0.401,0.42-0.614v0.614H230.883z"/>
</g>
<g>
</g>
<g>
</g>
<g>
</g>
<g>
</g>
<g>
</g>
<g>
</g>
<g>
</g>
<g>
</g>
<g>
</g>
<g>
</g>
<g>
</g>
<g>
</g>
<g>
</g>
<g>
</g>
<g>
</g>
</svg>

<svg width="431px" height="431px" viewBox="0 0 431 431" version="1.1" xmlns="http://www.w3.org/2000/svg" xmlns:xlink="http://www.w3.org/1999/xlink">
    <!-- Generator: Sketch 43.1 (39012) - http://www.bohemiancoding.com/sketch -->
    <desc>Created with Sketch.</desc>
    <defs></defs>
    <g id="Welcome" stroke="none" stroke-width="1" fill="none" fill-rule="evenodd">
        <g id="Artboard-2" transform="translate(-320.000000, -529.000000)" fill-rule="nonzero" fill="#FFFFFF">
            <g id="linkedin-square" transform="translate(320.000000, 529.000000)">
                <path d="M398.355,0 L31.782,0 C14.229,0 0.002,13.793 0.002,30.817 L0.002,399.288 C0.002,416.313 14.234,430.118 31.782,430.118 L398.355,430.118 C415.904,430.118 430.115,416.304 430.115,399.288 L430.115,30.817 C430.115,13.798 415.904,0 398.355,0 Z M130.4,360.038 L65.413,360.038 L65.413,165.845 L130.4,165.845 L130.4,360.038 Z M97.913,139.315 L97.476,139.315 C75.683,139.315 61.556,124.411 61.556,105.752 C61.556,86.717 76.098,72.217 98.323,72.217 C120.55,72.217 134.222,86.713 134.654,105.752 C134.654,124.415 120.555,139.315 97.913,139.315 Z M364.659,360.038 L299.693,360.038 L299.693,256.138 C299.693,230.031 290.28,212.217 266.786,212.217 C248.813,212.217 238.144,224.235 233.459,235.838 C231.723,239.982 231.293,245.778 231.293,251.566 L231.293,360.034 L166.339,360.034 C166.339,360.034 167.189,184.055 166.339,165.842 L231.303,165.842 L231.303,193.373 C239.927,180.144 255.338,161.273 289.837,161.273 C332.597,161.273 364.659,189.012 364.659,248.687 L364.659,360.038 Z M230.883,193.99 C230.994,193.808 231.149,193.589 231.303,193.376 L231.303,193.99 L230.883,193.99 Z" id="LinkedIn__x28_alt_x29_"></path>
            </g>
        </g>
    </g>
</svg>
